; generated by Slic3r 1.3.0 on 2020-09-17 at 11:26:00

; external perimeters extrusion width = 1.00mm (6.70mm^3/s)
; perimeters extrusion width = 1.00mm (13.39mm^3/s)
; infill extrusion width = 2.00mm (37.85mm^3/s)
; solid infill extrusion width = 2.00mm (18.93mm^3/s)
; top infill extrusion width = 2.00mm (14.20mm^3/s)

; ===== Paste Stabilization Layer (v2, auto-generated) =====
; Method: priming ramp + purge line + pressure-state shaping + retraction suppression
G90 ; absolute positioning (XY)
M83 ; relative extrusion (E)
G1 Z1.200 F600 ; set purge Z
G1 X10.000 Y10.000 F3000 ; purge start
; --- Pressure priming ramp (open-loop) ---
G1 E1.000 F120.0 ; prime step 1/8
G1 E1.000 F120.0 ; prime step 2/8
G1 E1.000 F120.0 ; prime step 3/8
G1 E1.000 F120.0 ; prime step 4/8
G1 E1.000 F120.0 ; prime step 5/8
G1 E1.000 F120.0 ; prime step 6/8
G1 E1.000 F120.0 ; prime step 7/8
G1 E1.000 F120.0 ; prime step 8/8
; --- Purge line ---
G1 E2.400 F180.0 ; pre-purge
G1 X80.000 Y10.000 E12.000 F600.0 ; purge line
; ===== End stabilization header =====
G28
M302 P1
G21 ; set units to millimeters
G90 ; use absolute coordinates
M83 ; use relative distances for extrusion
G92 E0
T1; Select extruder
; Filament gcode

G21 ; set units to millimeters
G90 ; use absolute coordinates
M83 ; use relative distances for extrusion
; [stabilizer] RETRACTION SUPPRESSED: G1 E-4.00000 F300.00000
G4 S0.35 ; dwell instead of retract
G1 E0.600 F120.0 ; micro-prime after dwell
G1 Z1.500 F300.000
G1 X79.232 Y77.032 F300.000
; [stabilizer] RETRACTION SUPPRESSED: G1 E-4.00000 F300.00000
G4 S0.35 ; dwell instead of retract
G1 E0.600 F120.0 ; micro-prime after dwell
G1 F300
; [stabilizer] RETRACTION SUPPRESSED: G1 X83.188 Y73.996 E-1.83615
G4 S0.35 ; dwell instead of retract
G1 X83.188 Y73.996 ; travel (no extrusion)
G1 E0.600 F120.0 ; micro-prime after travel
; [stabilizer] RETRACTION SUPPRESSED: G1 X85.885 Y72.439 E-1.14690
G4 S0.35 ; dwell instead of retract
G1 X85.885 Y72.439 ; travel (no extrusion)
G1 E0.600 F120.0 ; micro-prime after travel
; [stabilizer] RETRACTION SUPPRESSED: G1 X90.493 Y70.530 E-1.83658
G4 S0.35 ; dwell instead of retract
G1 X90.493 Y70.530 ; travel (no extrusion)
G1 E0.600 F120.0 ; micro-prime after travel
; [stabilizer] RETRACTION SUPPRESSED: G1 X93.500 Y69.724 E-1.14648
G4 S0.35 ; dwell instead of retract
G1 X93.500 Y69.724 ; travel (no extrusion)
G1 E0.600 F120.0 ; micro-prime after travel
; [stabilizer] RETRACTION SUPPRESSED: G1 X94.043 Y69.653 E-0.20185
G4 S0.35 ; dwell instead of retract
G1 X94.043 Y69.653 ; travel (no extrusion)
G1 E0.600 F120.0 ; micro-prime after travel
; [stabilizer] RETRACTION SUPPRESSED: G1 X98.444 Y69.074 E-1.63447
G4 S0.35 ; dwell instead of retract
G1 X98.444 Y69.074 ; travel (no extrusion)
G1 E0.600 F120.0 ; micro-prime after travel
; [stabilizer] RETRACTION SUPPRESSED: G1 X101.556 Y69.074 E-1.14597
G4 S0.35 ; dwell instead of retract
G1 X101.556 Y69.074 ; travel (no extrusion)
G1 E0.600 F120.0 ; micro-prime after travel
; [stabilizer] RETRACTION SUPPRESSED: G1 X106.499 Y69.724 E-1.83592
G4 S0.35 ; dwell instead of retract
G1 X106.499 Y69.724 ; travel (no extrusion)
G1 E0.600 F120.0 ; micro-prime after travel
; [stabilizer] RETRACTION SUPPRESSED: G1 X109.508 Y70.530 E-1.14687
G4 S0.35 ; dwell instead of retract
G1 X109.508 Y70.530 ; travel (no extrusion)
G1 E0.600 F120.0 ; micro-prime after travel
; [stabilizer] RETRACTION SUPPRESSED: G1 X114.114 Y72.438 E-1.83622
G4 S0.35 ; dwell instead of retract
G1 X114.114 Y72.438 ; travel (no extrusion)
G1 E0.600 F120.0 ; micro-prime after travel
; [stabilizer] RETRACTION SUPPRESSED: G1 X116.812 Y73.996 E-1.14722
G4 S0.35 ; dwell instead of retract
G1 X116.812 Y73.996 ; travel (no extrusion)
G1 E0.600 F120.0 ; micro-prime after travel
; [stabilizer] RETRACTION SUPPRESSED: G1 X120.768 Y77.032 E-1.83615
G4 S0.35 ; dwell instead of retract
G1 X120.768 Y77.032 ; travel (no extrusion)
G1 E0.600 F120.0 ; micro-prime after travel
; [stabilizer] RETRACTION SUPPRESSED: G1 X122.968 Y79.232 E-1.14567
G4 S0.35 ; dwell instead of retract
G1 X122.968 Y79.232 ; travel (no extrusion)
G1 E0.600 F120.0 ; micro-prime after travel
; [stabilizer] RETRACTION SUPPRESSED: G1 X126.004 Y83.188 E-1.83615
G4 S0.35 ; dwell instead of retract
G1 X126.004 Y83.188 ; travel (no extrusion)
G1 E0.600 F120.0 ; micro-prime after travel
; [stabilizer] RETRACTION SUPPRESSED: G1 X127.561 Y85.885 E-1.14688
G4 S0.35 ; dwell instead of retract
G1 X127.561 Y85.885 ; travel (no extrusion)
G1 E0.600 F120.0 ; micro-prime after travel
; [stabilizer] RETRACTION SUPPRESSED: G1 X129.470 Y90.493 E-1.83659
G4 S0.35 ; dwell instead of retract
G1 X129.470 Y90.493 ; travel (no extrusion)
G1 E0.600 F120.0 ; micro-prime after travel
; [stabilizer] RETRACTION SUPPRESSED: G1 X130.276 Y93.500 E-1.14648
G4 S0.35 ; dwell instead of retract
G1 X130.276 Y93.500 ; travel (no extrusion)
G1 E0.600 F120.0 ; micro-prime after travel
; [stabilizer] RETRACTION SUPPRESSED: G1 X130.347 Y94.043 E-0.20185
G4 S0.35 ; dwell instead of retract
G1 X130.347 Y94.043 ; travel (no extrusion)
G1 E0.600 F120.0 ; micro-prime after travel
; [stabilizer] RETRACTION SUPPRESSED: G1 X130.926 Y98.444 E-1.63447
G4 S0.35 ; dwell instead of retract
G1 X130.926 Y98.444 ; travel (no extrusion)
G1 E0.600 F120.0 ; micro-prime after travel
; [stabilizer] RETRACTION SUPPRESSED: G1 X130.926 Y101.556 E-1.14597
G4 S0.35 ; dwell instead of retract
G1 X130.926 Y101.556 ; travel (no extrusion)
G1 E0.600 F120.0 ; micro-prime after travel
; [stabilizer] RETRACTION SUPPRESSED: G1 X130.276 Y106.499 E-1.83591
G4 S0.35 ; dwell instead of retract
G1 X130.276 Y106.499 ; travel (no extrusion)
G1 E0.600 F120.0 ; micro-prime after travel
; [stabilizer] RETRACTION SUPPRESSED: G1 X129.470 Y109.508 E-1.14687
G4 S0.35 ; dwell instead of retract
G1 X129.470 Y109.508 ; travel (no extrusion)
G1 E0.600 F120.0 ; micro-prime after travel
; [stabilizer] RETRACTION SUPPRESSED: G1 X127.562 Y114.114 E-1.83622
G4 S0.35 ; dwell instead of retract
G1 X127.562 Y114.114 ; travel (no extrusion)
G1 E0.600 F120.0 ; micro-prime after travel
; [stabilizer] RETRACTION SUPPRESSED: G1 X126.004 Y116.812 E-1.14721
G4 S0.35 ; dwell instead of retract
G1 X126.004 Y116.812 ; travel (no extrusion)
G1 E0.600 F120.0 ; micro-prime after travel
; [stabilizer] RETRACTION SUPPRESSED: G1 X122.968 Y120.768 E-1.83615
G4 S0.35 ; dwell instead of retract
G1 X122.968 Y120.768 ; travel (no extrusion)
G1 E0.600 F120.0 ; micro-prime after travel
; [stabilizer] RETRACTION SUPPRESSED: G1 X120.768 Y122.968 E-1.14567
G4 S0.35 ; dwell instead of retract
G1 X120.768 Y122.968 ; travel (no extrusion)
G1 E0.600 F120.0 ; micro-prime after travel
; [stabilizer] RETRACTION SUPPRESSED: G1 X116.812 Y126.004 E-1.83615
G4 S0.35 ; dwell instead of retract
G1 X116.812 Y126.004 ; travel (no extrusion)
G1 E0.600 F120.0 ; micro-prime after travel
; [stabilizer] RETRACTION SUPPRESSED: G1 X114.115 Y127.561 E-1.14689
G4 S0.35 ; dwell instead of retract
G1 X114.115 Y127.561 ; travel (no extrusion)
G1 E0.600 F120.0 ; micro-prime after travel
; [stabilizer] RETRACTION SUPPRESSED: G1 X109.507 Y129.470 E-1.83659
G4 S0.35 ; dwell instead of retract
G1 X109.507 Y129.470 ; travel (no extrusion)
G1 E0.600 F120.0 ; micro-prime after travel
; [stabilizer] RETRACTION SUPPRESSED: G1 X106.500 Y130.276 E-1.14648
G4 S0.35 ; dwell instead of retract
G1 X106.500 Y130.276 ; travel (no extrusion)
G1 E0.600 F120.0 ; micro-prime after travel
; [stabilizer] RETRACTION SUPPRESSED: G1 X105.957 Y130.347 E-0.20185
G4 S0.35 ; dwell instead of retract
G1 X105.957 Y130.347 ; travel (no extrusion)
G1 E0.600 F120.0 ; micro-prime after travel
; [stabilizer] RETRACTION SUPPRESSED: G1 X101.556 Y130.926 E-1.63447
G4 S0.35 ; dwell instead of retract
G1 X101.556 Y130.926 ; travel (no extrusion)
G1 E0.600 F120.0 ; micro-prime after travel
; [stabilizer] RETRACTION SUPPRESSED: G1 X98.444 Y130.926 E-1.14597
G4 S0.35 ; dwell instead of retract
G1 X98.444 Y130.926 ; travel (no extrusion)
G1 E0.600 F120.0 ; micro-prime after travel
; [stabilizer] RETRACTION SUPPRESSED: G1 X93.501 Y130.276 E-1.83592
G4 S0.35 ; dwell instead of retract
G1 X93.501 Y130.276 ; travel (no extrusion)
G1 E0.600 F120.0 ; micro-prime after travel
; [stabilizer] RETRACTION SUPPRESSED: G1 X90.492 Y129.470 E-1.14687
G4 S0.35 ; dwell instead of retract
G1 X90.492 Y129.470 ; travel (no extrusion)
G1 E0.600 F120.0 ; micro-prime after travel
; [stabilizer] RETRACTION SUPPRESSED: G1 X85.886 Y127.562 E-1.83622
G4 S0.35 ; dwell instead of retract
G1 X85.886 Y127.562 ; travel (no extrusion)
G1 E0.600 F120.0 ; micro-prime after travel
; [stabilizer] RETRACTION SUPPRESSED: G1 X83.188 Y126.004 E-1.14721
G4 S0.35 ; dwell instead of retract
G1 X83.188 Y126.004 ; travel (no extrusion)
G1 E0.600 F120.0 ; micro-prime after travel
; [stabilizer] RETRACTION SUPPRESSED: G1 X79.232 Y122.968 E-1.83615
G4 S0.35 ; dwell instead of retract
G1 X79.232 Y122.968 ; travel (no extrusion)
G1 E0.600 F120.0 ; micro-prime after travel
; [stabilizer] RETRACTION SUPPRESSED: G1 X77.032 Y120.768 E-1.14567
G4 S0.35 ; dwell instead of retract
G1 X77.032 Y120.768 ; travel (no extrusion)
G1 E0.600 F120.0 ; micro-prime after travel
; [stabilizer] RETRACTION SUPPRESSED: G1 X73.996 Y116.812 E-1.83615
G4 S0.35 ; dwell instead of retract
G1 X73.996 Y116.812 ; travel (no extrusion)
G1 E0.600 F120.0 ; micro-prime after travel
; [stabilizer] RETRACTION SUPPRESSED: G1 X72.439 Y114.115 E-1.14690
G4 S0.35 ; dwell instead of retract
G1 X72.439 Y114.115 ; travel (no extrusion)
G1 E0.600 F120.0 ; micro-prime after travel
; [stabilizer] RETRACTION SUPPRESSED: G1 X70.530 Y109.507 E-1.83658
G4 S0.35 ; dwell instead of retract
G1 X70.530 Y109.507 ; travel (no extrusion)
G1 E0.600 F120.0 ; micro-prime after travel
; [stabilizer] RETRACTION SUPPRESSED: G1 X69.724 Y106.500 E-1.14648
G4 S0.35 ; dwell instead of retract
G1 X69.724 Y106.500 ; travel (no extrusion)
G1 E0.600 F120.0 ; micro-prime after travel
; [stabilizer] RETRACTION SUPPRESSED: G1 X69.653 Y105.957 E-0.20185
G4 S0.35 ; dwell instead of retract
G1 X69.653 Y105.957 ; travel (no extrusion)
G1 E0.600 F120.0 ; micro-prime after travel
; [stabilizer] RETRACTION SUPPRESSED: G1 X69.074 Y101.556 E-1.63446
G4 S0.35 ; dwell instead of retract
G1 X69.074 Y101.556 ; travel (no extrusion)
G1 E0.600 F120.0 ; micro-prime after travel
; [stabilizer] RETRACTION SUPPRESSED: G1 X69.074 Y98.444 E-1.14597
G4 S0.35 ; dwell instead of retract
G1 X69.074 Y98.444 ; travel (no extrusion)
G1 E0.600 F120.0 ; micro-prime after travel
; [stabilizer] RETRACTION SUPPRESSED: G1 X69.724 Y93.501 E-1.83592
G4 S0.35 ; dwell instead of retract
G1 X69.724 Y93.501 ; travel (no extrusion)
G1 E0.600 F120.0 ; micro-prime after travel
; [stabilizer] RETRACTION SUPPRESSED: G1 X70.530 Y90.492 E-1.14687
G4 S0.35 ; dwell instead of retract
G1 X70.530 Y90.492 ; travel (no extrusion)
G1 E0.600 F120.0 ; micro-prime after travel
; [stabilizer] RETRACTION SUPPRESSED: G1 X72.438 Y85.886 E-1.83622
G4 S0.35 ; dwell instead of retract
G1 X72.438 Y85.886 ; travel (no extrusion)
G1 E0.600 F120.0 ; micro-prime after travel
; [stabilizer] RETRACTION SUPPRESSED: G1 X73.996 Y83.188 E-1.14722
G4 S0.35 ; dwell instead of retract
G1 X73.996 Y83.188 ; travel (no extrusion)
G1 E0.600 F120.0 ; micro-prime after travel
; [stabilizer] RETRACTION SUPPRESSED: G1 X77.032 Y79.232 E-1.83615
G4 S0.35 ; dwell instead of retract
G1 X77.032 Y79.232 ; travel (no extrusion)
G1 E0.600 F120.0 ; micro-prime after travel
; [stabilizer] RETRACTION SUPPRESSED: G1 X79.179 Y77.085 E-1.11805
G4 S0.35 ; dwell instead of retract
G1 X79.179 Y77.085 ; travel (no extrusion)
G1 E0.600 F120.0 ; micro-prime after travel
; [stabilizer] RETRACTION SUPPRESSED: G1 E-4.00000 F300.00000
G4 S0.35 ; dwell instead of retract
G1 E0.600 F120.0 ; micro-prime after dwell
G1 X112.703 Y112.703 F300.000
; [stabilizer] RETRACTION SUPPRESSED: G1 E-4.00000 F300.00000
G4 S0.35 ; dwell instead of retract
G1 E0.600 F120.0 ; micro-prime after dwell
G1 F300
; [stabilizer] RETRACTION SUPPRESSED: G1 X108.983 Y115.559 E-1.72710
G4 S0.35 ; dwell instead of retract
G1 X108.983 Y115.559 ; travel (no extrusion)
G1 E0.600 F120.0 ; micro-prime after travel
; [stabilizer] RETRACTION SUPPRESSED: G1 X108.613 Y115.712 E-0.14734
G4 S0.35 ; dwell instead of retract
G1 X108.613 Y115.712 ; travel (no extrusion)
G1 E0.600 F120.0 ; micro-prime after travel
; [stabilizer] RETRACTION SUPPRESSED: G1 X104.649 Y117.354 E-1.57975
G4 S0.35 ; dwell instead of retract
G1 X104.649 Y117.354 ; travel (no extrusion)
G1 E0.600 F120.0 ; micro-prime after travel
; [stabilizer] RETRACTION SUPPRESSED: G1 X100.000 Y117.965 E-1.72686
G4 S0.35 ; dwell instead of retract
G1 X100.000 Y117.965 ; travel (no extrusion)
G1 E0.600 F120.0 ; micro-prime after travel
; [stabilizer] RETRACTION SUPPRESSED: G1 X95.351 Y117.354 E-1.72686
G4 S0.35 ; dwell instead of retract
G1 X95.351 Y117.354 ; travel (no extrusion)
G1 E0.600 F120.0 ; micro-prime after travel
; [stabilizer] RETRACTION SUPPRESSED: G1 X91.017 Y115.559 E-1.72710
G4 S0.35 ; dwell instead of retract
G1 X91.017 Y115.559 ; travel (no extrusion)
G1 E0.600 F120.0 ; micro-prime after travel
; [stabilizer] RETRACTION SUPPRESSED: G1 X87.297 Y112.703 E-1.72709
G4 S0.35 ; dwell instead of retract
G1 X87.297 Y112.703 ; travel (no extrusion)
G1 E0.600 F120.0 ; micro-prime after travel
; [stabilizer] RETRACTION SUPPRESSED: G1 X84.441 Y108.983 E-1.72710
G4 S0.35 ; dwell instead of retract
G1 X84.441 Y108.983 ; travel (no extrusion)
G1 E0.600 F120.0 ; micro-prime after travel
; [stabilizer] RETRACTION SUPPRESSED: G1 X84.288 Y108.613 E-0.14734
G4 S0.35 ; dwell instead of retract
G1 X84.288 Y108.613 ; travel (no extrusion)
G1 E0.600 F120.0 ; micro-prime after travel
; [stabilizer] RETRACTION SUPPRESSED: G1 X82.646 Y104.649 E-1.57975
G4 S0.35 ; dwell instead of retract
G1 X82.646 Y104.649 ; travel (no extrusion)
G1 E0.600 F120.0 ; micro-prime after travel
; [stabilizer] RETRACTION SUPPRESSED: G1 X82.035 Y100.000 E-1.72686
G4 S0.35 ; dwell instead of retract
G1 X82.035 Y100.000 ; travel (no extrusion)
G1 E0.600 F120.0 ; micro-prime after travel
; [stabilizer] RETRACTION SUPPRESSED: G1 X82.646 Y95.351 E-1.72686
G4 S0.35 ; dwell instead of retract
G1 X82.646 Y95.351 ; travel (no extrusion)
G1 E0.600 F120.0 ; micro-prime after travel
; [stabilizer] RETRACTION SUPPRESSED: G1 X84.441 Y91.017 E-1.72710
G4 S0.35 ; dwell instead of retract
G1 X84.441 Y91.017 ; travel (no extrusion)
G1 E0.600 F120.0 ; micro-prime after travel
; [stabilizer] RETRACTION SUPPRESSED: G1 X87.297 Y87.297 E-1.72709
G4 S0.35 ; dwell instead of retract
G1 X87.297 Y87.297 ; travel (no extrusion)
G1 E0.600 F120.0 ; micro-prime after travel
; [stabilizer] RETRACTION SUPPRESSED: G1 X91.017 Y84.441 E-1.72709
G4 S0.35 ; dwell instead of retract
G1 X91.017 Y84.441 ; travel (no extrusion)
G1 E0.600 F120.0 ; micro-prime after travel
; [stabilizer] RETRACTION SUPPRESSED: G1 X95.351 Y82.646 E-1.72710
G4 S0.35 ; dwell instead of retract
G1 X95.351 Y82.646 ; travel (no extrusion)
G1 E0.600 F120.0 ; micro-prime after travel
; [stabilizer] RETRACTION SUPPRESSED: G1 X100.000 Y82.035 E-1.72684
G4 S0.35 ; dwell instead of retract
G1 X100.000 Y82.035 ; travel (no extrusion)
G1 E0.600 F120.0 ; micro-prime after travel
; [stabilizer] RETRACTION SUPPRESSED: G1 X104.649 Y82.646 E-1.72687
G4 S0.35 ; dwell instead of retract
G1 X104.649 Y82.646 ; travel (no extrusion)
G1 E0.600 F120.0 ; micro-prime after travel
; [stabilizer] RETRACTION SUPPRESSED: G1 X108.983 Y84.441 E-1.72710
G4 S0.35 ; dwell instead of retract
G1 X108.983 Y84.441 ; travel (no extrusion)
G1 E0.600 F120.0 ; micro-prime after travel
; [stabilizer] RETRACTION SUPPRESSED: G1 X112.703 Y87.297 E-1.72709
G4 S0.35 ; dwell instead of retract
G1 X112.703 Y87.297 ; travel (no extrusion)
G1 E0.600 F120.0 ; micro-prime after travel
; [stabilizer] RETRACTION SUPPRESSED: G1 X115.559 Y91.017 E-1.72710
G4 S0.35 ; dwell instead of retract
G1 X115.559 Y91.017 ; travel (no extrusion)
G1 E0.600 F120.0 ; micro-prime after travel
