; generated by Slic3r 1.3.0 on 2020-09-17 at 11:26:00

; external perimeters extrusion width = 1.00mm (6.70mm^3/s)
; perimeters extrusion width = 1.00mm (13.39mm^3/s)
; infill extrusion width = 2.00mm (37.85mm^3/s)
; solid infill extrusion width = 2.00mm (18.93mm^3/s)
; top infill extrusion width = 2.00mm (14.20mm^3/s)

G28
M302 P1
G21 ; set units to millimeters
G90 ; use absolute coordinates
M83 ; use relative distances for extrusion
G92 E0
T1; Select extruder
; Filament gcode

G21 ; set units to millimeters
G90 ; use absolute coordinates
M83 ; use relative distances for extrusion
G1 E-4.00000 F300.00000
G1 Z1.500 F300.000
G1 X79.232 Y77.032 F300.000
G1 E-4.00000 F300.00000
G1 F300
G1 X83.188 Y73.996 E-1.83615
G1 X85.885 Y72.439 E-1.14690
G1 X90.493 Y70.530 E-1.83658
G1 X93.500 Y69.724 E-1.14648
G1 X94.043 Y69.653 E-0.20185
G1 X98.444 Y69.074 E-1.63447
G1 X101.556 Y69.074 E-1.14597
G1 X106.499 Y69.724 E-1.83592
G1 X109.508 Y70.530 E-1.14687
G1 X114.114 Y72.438 E-1.83622
G1 X116.812 Y73.996 E-1.14722
G1 X120.768 Y77.032 E-1.83615
G1 X122.968 Y79.232 E-1.14567
G1 X126.004 Y83.188 E-1.83615
G1 X127.561 Y85.885 E-1.14688
G1 X129.470 Y90.493 E-1.83659
G1 X130.276 Y93.500 E-1.14648
G1 X130.347 Y94.043 E-0.20185
G1 X130.926 Y98.444 E-1.63447
G1 X130.926 Y101.556 E-1.14597
G1 X130.276 Y106.499 E-1.83591
G1 X129.470 Y109.508 E-1.14687
G1 X127.562 Y114.114 E-1.83622
G1 X126.004 Y116.812 E-1.14721
G1 X122.968 Y120.768 E-1.83615
G1 X120.768 Y122.968 E-1.14567
G1 X116.812 Y126.004 E-1.83615
G1 X114.115 Y127.561 E-1.14689
G1 X109.507 Y129.470 E-1.83659
G1 X106.500 Y130.276 E-1.14648
G1 X105.957 Y130.347 E-0.20185
G1 X101.556 Y130.926 E-1.63447
G1 X98.444 Y130.926 E-1.14597
G1 X93.501 Y130.276 E-1.83592
G1 X90.492 Y129.470 E-1.14687
G1 X85.886 Y127.562 E-1.83622
G1 X83.188 Y126.004 E-1.14721
G1 X79.232 Y122.968 E-1.83615
G1 X77.032 Y120.768 E-1.14567
G1 X73.996 Y116.812 E-1.83615
G1 X72.439 Y114.115 E-1.14690
G1 X70.530 Y109.507 E-1.83658
G1 X69.724 Y106.500 E-1.14648
G1 X69.653 Y105.957 E-0.20185
G1 X69.074 Y101.556 E-1.63446
G1 X69.074 Y98.444 E-1.14597
G1 X69.724 Y93.501 E-1.83592
G1 X70.530 Y90.492 E-1.14687
G1 X72.438 Y85.886 E-1.83622
G1 X73.996 Y83.188 E-1.14722
G1 X77.032 Y79.232 E-1.83615
G1 X79.179 Y77.085 E-1.11805
G1 E-4.00000 F300.00000
G1 X112.703 Y112.703 F300.000
G1 E-4.00000 F300.00000
G1 F300
G1 X108.983 Y115.559 E-1.72710
G1 X108.613 Y115.712 E-0.14734
G1 X104.649 Y117.354 E-1.57975
G1 X100.000 Y117.965 E-1.72686
G1 X95.351 Y117.354 E-1.72686
G1 X91.017 Y115.559 E-1.72710
G1 X87.297 Y112.703 E-1.72709
G1 X84.441 Y108.983 E-1.72710
G1 X84.288 Y108.613 E-0.14734
G1 X82.646 Y104.649 E-1.57975
G1 X82.035 Y100.000 E-1.72686
G1 X82.646 Y95.351 E-1.72686
G1 X84.441 Y91.017 E-1.72710
G1 X87.297 Y87.297 E-1.72709
G1 X91.017 Y84.441 E-1.72709
G1 X95.351 Y82.646 E-1.72710
G1 X100.000 Y82.035 E-1.72684
G1 X104.649 Y82.646 E-1.72687
G1 X108.983 Y84.441 E-1.72710
G1 X112.703 Y87.297 E-1.72709
G1 X115.559 Y91.017 E-1.72710
G1 X115.712 Y91.387 E-0.14734
G1 X117.354 Y95.351 E-1.57975
G1 X117.965 Y100.000 E-1.72686
G1 X117.354 Y104.649 E-1.72685
G1 X115.559 Y108.983 E-1.72710
G1 X112.749 Y112.644 E-1.69947
G1 E-4.00000 F300.00000
G1 X110.578 Y112.078 F300.000
G1 E-4.00000 F300.00000
G1 F300
G1 X112.078 Y110.578 E-0.81173
G1 X114.624 Y107.260 E-1.59934
G1 X116.082 Y103.743 E-1.45622
G1 X103.743 Y116.082 E-6.67383
G1 X103.396 Y116.225 E-0.14331
G1 X100.369 Y116.623 E-1.16789
G1 X116.623 Y100.369 E-8.79163
G1 X116.770 Y99.250 E-0.43151
G1 X116.554 Y97.606 E-0.63426
G1 X97.606 Y116.554 E-10.24858
G1 X95.103 Y116.225 E-0.96537
G1 X116.225 Y95.103 E-11.42395
G1 X115.395 Y93.101 E-0.82899
G1 X93.101 Y115.395 E-12.05847
G1 X91.240 Y114.624 E-0.77031
G1 X91.127 Y114.537 E-0.05468
G1 X114.537 Y91.127 E-12.66232
G1 X113.308 Y89.524 E-0.77248
G1 X89.524 Y113.308 E-12.86381
G1 X87.922 Y112.078 E-0.77248
G1 X112.078 Y87.922 E-13.06530
G1 X110.476 Y86.692 E-0.77248
G1 X86.692 Y110.476 E-12.86381
G1 X85.463 Y108.873 E-0.77248
G1 X108.873 Y85.463 E-12.66232
G1 X108.760 Y85.376 E-0.05468
G1 X106.899 Y84.605 E-0.77031
G1 X84.605 Y106.899 E-12.05847
G1 X83.775 Y104.897 E-0.82899
G1 X104.897 Y83.775 E-11.42395
G1 X102.394 Y83.446 E-0.96538
G1 X83.446 Y102.394 E-10.24857
G1 X83.230 Y100.750 E-0.63426
G1 X83.377 Y99.631 E-0.43151
G1 X99.631 Y83.377 E-8.79163
G1 X96.604 Y83.775 E-1.16788
G1 X96.257 Y83.918 E-0.14332
G1 X83.918 Y96.257 E-6.67382
G1 X85.376 Y92.740 E-1.45622
G1 X87.922 Y89.422 E-1.59934
G1 X89.422 Y87.922 E-0.81174
G1 E-4.00000 F300.00000
G1 Z2.000 F300.000
G1 X111.664 Y111.664 F300.000
G1 E-4.00000 F300.00000
G1 F300
G1 X108.248 Y114.286 E-0.24473
G1 X107.235 Y114.705 E-0.06228
G1 X104.269 Y115.934 E-0.18245
G1 X100.000 Y116.495 E-0.24470
G1 X95.731 Y115.934 E-0.24470
G1 X91.752 Y114.286 E-0.24474
G1 X88.336 Y111.664 E-0.24473
G1 X85.714 Y108.248 E-0.24473
G1 X85.295 Y107.235 E-0.06228
G1 X84.066 Y104.269 E-0.18245
G1 X83.505 Y100.000 E-0.24470
G1 X84.066 Y95.731 E-0.24470
G1 X85.714 Y91.752 E-0.24474
G1 X88.336 Y88.336 E-0.24473
G1 X91.752 Y85.714 E-0.24473
G1 X95.731 Y84.066 E-0.24474
G1 X100.000 Y83.505 E-0.24470
G1 X104.269 Y84.066 E-0.24470
G1 X108.248 Y85.714 E-0.24474
G1 X111.664 Y88.336 E-0.24473
G1 X114.286 Y91.752 E-0.24473
G1 X114.705 Y92.765 E-0.06228
G1 X115.934 Y95.731 E-0.18245
G1 X116.495 Y100.000 E-0.24470
G1 X115.934 Y104.269 E-0.24470
G1 X114.286 Y108.248 E-0.24474
G1 X111.709 Y111.604 E-0.24047
G1 X112.372 Y112.207 F300.000
G1 F300
G1 X112.300 Y112.300 E-0.00667
G1 X108.698 Y115.065 E-0.25809
G1 X104.502 Y116.803 E-0.25810
G1 X100.000 Y117.396 E-0.25806
G1 X95.498 Y116.803 E-0.25806
G1 X91.302 Y115.065 E-0.25810
G1 X87.700 Y112.300 E-0.25809
G1 X84.935 Y108.698 E-0.25809
G1 X84.470 Y107.577 E-0.06896
G1 X83.197 Y104.502 E-0.18914
G1 X82.604 Y100.000 E-0.25806
G1 X83.197 Y95.498 E-0.25806
G1 X84.935 Y91.302 E-0.25810
G1 X87.700 Y87.700 E-0.25809
G1 X91.302 Y84.935 E-0.25809
G1 X95.498 Y83.197 E-0.25810
G1 X100.000 Y82.604 E-0.25805
G1 X104.502 Y83.197 E-0.25806
G1 X108.698 Y84.935 E-0.25810
G1 X112.300 Y87.700 E-0.25809
G1 X115.065 Y91.302 E-0.25809
G1 X115.530 Y92.423 E-0.06896
G1 X116.803 Y95.498 E-0.18914
G1 X117.396 Y100.000 E-0.25806
G1 X116.803 Y104.502 E-0.25806
G1 X115.065 Y108.698 E-0.25810
G1 X112.418 Y112.148 E-0.24715
G1 E-4.00000 F300.00000
G1 X111.213 Y89.872 F300.000
G1 E-4.00000 F300.00000
G1 F300
G1 X110.128 Y88.787 E-0.19642
G1 X107.004 Y86.389 E-0.50453
G1 X103.386 Y84.891 E-0.50150
G1 X115.109 Y96.614 E-2.12352
G1 X115.547 Y99.898 E-0.42437
G1 X100.102 Y84.453 E-2.79780
G1 X99.458 Y84.368 E-0.08322
G1 X97.438 Y84.634 E-0.26100
G1 X115.366 Y102.562 E-3.24764
G1 X115.118 Y104.447 E-0.24354
G1 X114.910 Y104.951 E-0.06983
G1 X95.049 Y85.090 E-3.59762
G1 X93.037 Y85.924 E-0.27895
G1 X114.076 Y106.963 E-3.81113
G1 X113.611 Y108.087 E-0.15584
G1 X113.065 Y108.797 E-0.11472
G1 X91.203 Y86.935 E-3.96033
G1 X89.593 Y88.170 E-0.25994
G1 X111.830 Y110.407 E-4.02813
G1 X111.212 Y111.212 E-0.12997
G1 X110.407 Y111.830 E-0.12997
G1 X88.170 Y89.593 E-4.02813
G1 X86.935 Y91.203 E-0.25994
G1 X108.797 Y113.065 E-3.96033
G1 X108.087 Y113.611 E-0.11473
G1 X106.963 Y114.076 E-0.15583
G1 X85.924 Y93.037 E-3.81114
G1 X85.090 Y95.049 E-0.27895
G1 X104.951 Y114.910 E-3.59763
G1 X104.447 Y115.118 E-0.06983
G1 X102.562 Y115.366 E-0.24354
G1 X84.634 Y97.438 E-3.24764
G1 X84.368 Y99.458 E-0.26101
G1 X84.452 Y100.102 E-0.08320
G1 X99.898 Y115.547 E-2.79782
G1 X96.614 Y115.109 E-0.42437
G1 X84.891 Y103.386 E-2.12352
G1 X86.389 Y107.003 E-0.50150
G1 X88.787 Y110.128 E-0.50453
G1 X89.871 Y111.211 E-0.19623
G1 E-4.00000 F300.00000
G1 Z2.500 F300.000
G1 X111.239 Y111.239 F300.000
G1 E-4.00000 F300.00000
G1 F300
G1 X107.948 Y113.766 E-0.23583
G1 X106.597 Y114.325 E-0.08306
G1 X104.114 Y115.354 E-0.15278
G1 X100.000 Y115.895 E-0.23580
G1 X95.886 Y115.354 E-0.23580
G1 X92.052 Y113.766 E-0.23584
G1 X88.761 Y111.239 E-0.23583
G1 X86.234 Y107.948 E-0.23583
G1 X85.675 Y106.597 E-0.08306
G1 X84.646 Y104.114 E-0.15278
G1 X84.105 Y100.000 E-0.23580
G1 X84.646 Y95.886 E-0.23580
G1 X86.234 Y92.052 E-0.23584
G1 X88.761 Y88.761 E-0.23583
G1 X92.052 Y86.234 E-0.23583
G1 X95.886 Y84.646 E-0.23584
G1 X100.000 Y84.105 E-0.23579
G1 X104.114 Y84.646 E-0.23580
G1 X107.948 Y86.234 E-0.23584
G1 X111.239 Y88.761 E-0.23583
G1 X113.766 Y92.052 E-0.23583
G1 X114.325 Y93.403 E-0.08306
G1 X115.354 Y95.886 E-0.15278
G1 X115.895 Y100.000 E-0.23580
G1 X115.354 Y104.114 E-0.23580
G1 X113.766 Y107.948 E-0.23584
G1 X111.285 Y111.180 E-0.23156
G1 X111.783 Y111.948 F300.000
G1 F300
G1 X108.398 Y114.546 E-0.24251
G1 X104.347 Y116.224 E-0.24920
G1 X100.000 Y116.796 E-0.24915
G1 X95.653 Y116.224 E-0.24915
G1 X91.602 Y114.546 E-0.24920
G1 X88.124 Y111.876 E-0.24918
G1 X85.454 Y108.398 E-0.24918
G1 X84.850 Y106.939 E-0.08974
G1 X83.776 Y104.347 E-0.15946
G1 X83.204 Y100.000 E-0.24915
G1 X83.776 Y95.653 E-0.24915
G1 X85.454 Y91.602 E-0.24920
G1 X88.124 Y88.124 E-0.24918
G1 X91.602 Y85.454 E-0.24918
G1 X95.653 Y83.776 E-0.24920
G1 X100.000 Y83.204 E-0.24915
G1 X104.347 Y83.776 E-0.24915
G1 X108.398 Y85.454 E-0.24920
G1 X111.876 Y88.124 E-0.24918
G1 X114.546 Y91.602 E-0.24918
G1 X115.150 Y93.061 E-0.08974
G1 X116.224 Y95.653 E-0.15946
G1 X116.796 Y100.000 E-0.24915
G1 X116.224 Y104.347 E-0.24915
G1 X114.546 Y108.398 E-0.24920
G1 X111.842 Y111.902 E-0.25151
G1 E-4.00000 F300.00000
G1 X109.704 Y110.788 F300.000
G1 E-4.00000 F300.00000
G1 F300
G1 X110.788 Y109.704 E-0.18861
G1 X113.091 Y106.704 E-0.46520
G1 X114.530 Y103.230 E-0.46242
G1 X103.230 Y114.530 E-1.96550
G1 X100.077 Y114.951 E-0.39129
G1 X114.951 Y100.077 E-2.58725
G1 X115.032 Y99.458 E-0.07671
G1 X114.777 Y97.518 E-0.24067
G1 X97.518 Y114.777 E-3.00200
G1 X95.708 Y114.539 E-0.22455
G1 X95.225 Y114.338 E-0.06439
G1 X114.338 Y95.225 E-3.32470
G1 X113.538 Y93.293 E-0.25721
G1 X93.293 Y113.538 E-3.52156
G1 X92.213 Y113.091 E-0.14370
G1 X91.531 Y112.567 E-0.10577
G1 X112.567 Y91.531 E-3.65912
G1 X111.381 Y89.985 E-0.23968
G1 X89.985 Y111.381 E-3.72164
G1 X89.212 Y110.788 E-0.11984
G1 X88.619 Y110.015 E-0.11984
G1 X110.015 Y88.619 E-3.72164
G1 X108.469 Y87.433 E-0.23968
G1 X87.433 Y108.469 E-3.65912
G1 X86.909 Y107.787 E-0.10578
G1 X86.462 Y106.707 E-0.14368
G1 X106.707 Y86.462 E-3.52156
G1 X104.775 Y85.662 E-0.25721
G1 X85.662 Y104.775 E-3.32470
G1 X85.461 Y104.292 E-0.06439
G1 X85.223 Y102.482 E-0.22455
G1 X102.482 Y85.223 E-3.00199
G1 X100.542 Y84.968 E-0.24068
G1 X99.923 Y85.049 E-0.07669
G1 X85.049 Y99.923 E-2.58725
G1 X85.470 Y96.770 E-0.39129
G1 X96.770 Y85.470 E-1.96551
G1 X93.296 Y86.909 E-0.46242
G1 X90.296 Y89.212 E-0.46519
G1 X89.213 Y90.295 E-0.18843
G1 E-4.00000 F300.00000
G1 Z3.000 F300.000
G1 X110.815 Y110.815 F300.000
G1 E-4.00000 F300.00000
G1 F300
G1 X107.648 Y113.246 E-0.22692
G1 X105.960 Y113.945 E-0.10383
G1 X103.958 Y114.774 E-0.12311
G1 X100.000 Y115.295 E-0.22690
G1 X96.042 Y114.774 E-0.22689
G1 X92.352 Y113.246 E-0.22694
G1 X89.185 Y110.815 E-0.22692
G1 X86.754 Y107.648 E-0.22692
G1 X86.055 Y105.960 E-0.10383
G1 X85.226 Y103.958 E-0.12311
G1 X84.705 Y100.000 E-0.22690
G1 X85.226 Y96.042 E-0.22689
G1 X86.754 Y92.352 E-0.22694
G1 X89.185 Y89.185 E-0.22692
G1 X92.352 Y86.754 E-0.22692
G1 X96.042 Y85.226 E-0.22694
G1 X100.000 Y84.705 E-0.22689
G1 X103.958 Y85.226 E-0.22690
G1 X107.648 Y86.754 E-0.22694
G1 X110.815 Y89.185 E-0.22692
G1 X113.246 Y92.352 E-0.22692
G1 X113.945 Y94.040 E-0.10383
G1 X114.774 Y96.042 E-0.12311
G1 X115.295 Y100.000 E-0.22690
G1 X114.774 Y103.958 E-0.22689
G1 X113.246 Y107.648 E-0.22694
G1 X110.861 Y110.756 E-0.22266
G1 X111.359 Y111.523 F300.000
G1 F300
G1 X108.098 Y114.026 E-0.23360
G1 X104.191 Y115.644 E-0.24030
G1 X100.000 Y116.196 E-0.24025
G1 X95.809 Y115.644 E-0.24025
G1 X91.902 Y114.026 E-0.24030
G1 X88.548 Y111.452 E-0.24028
G1 X85.974 Y108.098 E-0.24028
G1 X85.230 Y106.301 E-0.11051
G1 X84.356 Y104.191 E-0.12979
G1 X83.804 Y100.000 E-0.24025
G1 X84.356 Y95.809 E-0.24025
G1 X85.974 Y91.902 E-0.24030
G1 X88.548 Y88.548 E-0.24028
G1 X91.902 Y85.974 E-0.24028
G1 X95.809 Y84.356 E-0.24030
G1 X100.000 Y83.804 E-0.24025
G1 X104.191 Y84.356 E-0.24025
G1 X108.098 Y85.974 E-0.24030
G1 X111.452 Y88.548 E-0.24028
G1 X114.026 Y91.902 E-0.24028
G1 X114.770 Y93.699 E-0.11051
G1 X115.644 Y95.809 E-0.12979
G1 X116.196 Y100.000 E-0.24025
G1 X115.644 Y104.191 E-0.24025
G1 X114.026 Y108.098 E-0.24030
G1 X111.418 Y111.478 E-0.24261
G1 E-4.00000 F300.00000
G1 X110.364 Y90.720 F300.000
G1 E-4.00000 F300.00000
G1 F300
G1 X109.280 Y89.636 E-0.18477
G1 X106.403 Y87.429 E-0.43685
G1 X103.053 Y86.041 E-0.43695
G1 X102.852 Y86.014 E-0.02449
G1 X113.986 Y97.148 E-1.89726
G1 X114.411 Y100.380 E-0.39273
G1 X99.620 Y85.589 E-2.52039
G1 X99.458 Y85.568 E-0.01967
G1 X97.103 Y85.878 E-0.28629
G1 X114.122 Y102.897 E-2.90017
G1 X113.959 Y104.136 E-0.15059
G1 X113.548 Y105.129 E-0.12949
G1 X94.871 Y86.452 E-3.18263
G1 X92.886 Y87.274 E-0.25879
G1 X112.726 Y107.113 E-3.38069
G1 X112.571 Y107.487 E-0.04868
G1 X111.582 Y108.776 E-0.19579
G1 X91.224 Y88.418 E-3.46902
G1 X89.637 Y89.637 E-0.24115
G1 X110.363 Y110.363 E-3.53192
G1 X108.776 Y111.582 E-0.24115
G1 X88.418 Y91.224 E-3.46902
G1 X87.429 Y92.513 E-0.19579
G1 X87.274 Y92.886 E-0.04868
G1 X107.114 Y112.726 E-3.38070
G1 X105.129 Y113.548 E-0.25879
G1 X86.452 Y94.871 E-3.18264
G1 X86.041 Y95.864 E-0.12949
G1 X85.878 Y97.103 E-0.15058
G1 X102.897 Y114.122 E-2.90018
G1 X100.542 Y114.432 E-0.28629
G1 X100.380 Y114.411 E-0.01966
G1 X85.589 Y99.620 E-2.52040
G1 X86.014 Y102.852 E-0.39273
G1 X97.148 Y113.986 E-1.89727
G1 X96.947 Y113.959 E-0.02449
G1 X93.596 Y112.571 E-0.43696
G1 X90.720 Y110.364 E-0.43684
G1 X89.636 Y109.280 E-0.18479
G1 E-4.00000 F300.00000
G1 Z3.500 F300.000
G1 X110.391 Y110.391 F300.000
G1 E-4.00000 F300.00000
G1 F300
G1 X107.348 Y112.726 E-0.21802
G1 X103.803 Y114.195 E-0.21804
G1 X100.000 Y114.695 E-0.21799
G1 X96.197 Y114.195 E-0.21799
G1 X92.652 Y112.726 E-0.21804
G1 X89.609 Y110.391 E-0.21802
G1 X87.274 Y107.348 E-0.21802
G1 X85.805 Y103.803 E-0.21804
G1 X85.305 Y100.000 E-0.21799
G1 X85.805 Y96.197 E-0.21799
G1 X87.274 Y92.652 E-0.21804
G1 X89.609 Y89.609 E-0.21802
G1 X92.652 Y87.274 E-0.21802
G1 X96.197 Y85.805 E-0.21804
G1 X100.000 Y85.305 E-0.21799
G1 X103.803 Y85.805 E-0.21800
G1 X107.348 Y87.274 E-0.21804
G1 X110.391 Y89.609 E-0.21802
G1 X112.726 Y92.652 E-0.21802
G1 X114.195 Y96.197 E-0.21804
G1 X114.695 Y100.000 E-0.21799
G1 X114.195 Y103.803 E-0.21799
G1 X112.726 Y107.348 E-0.21804
G1 X110.436 Y110.331 E-0.21375
G1 X111.099 Y110.934 F300.000
G1 F300
G1 X111.027 Y111.027 E-0.00667
G1 X107.798 Y113.506 E-0.23137
G1 X104.036 Y115.064 E-0.23140
G1 X100.000 Y115.596 E-0.23135
G1 X95.964 Y115.064 E-0.23135
G1 X92.202 Y113.506 E-0.23140
G1 X88.973 Y111.027 E-0.23137
G1 X86.494 Y107.798 E-0.23137
G1 X84.936 Y104.036 E-0.23140
G1 X84.404 Y100.000 E-0.23135
G1 X84.936 Y95.964 E-0.23135
G1 X86.494 Y92.202 E-0.23140
G1 X88.973 Y88.973 E-0.23137
G1 X92.202 Y86.494 E-0.23137
G1 X95.964 Y84.936 E-0.23140
G1 X100.000 Y84.404 E-0.23135
G1 X104.036 Y84.936 E-0.23135
G1 X107.798 Y86.494 E-0.23140
G1 X111.027 Y88.973 E-0.23137
G1 X113.506 Y92.202 E-0.23137
G1 X115.064 Y95.964 E-0.23140
G1 X115.596 Y100.000 E-0.23135
G1 X115.064 Y104.036 E-0.23135
G1 X113.506 Y107.798 E-0.23140
G1 X111.145 Y110.875 E-0.22044
G1 E-4.00000 F300.00000
G1 X108.855 Y109.940 F300.000
G1 E-4.00000 F300.00000
G1 F300
G1 X109.940 Y108.855 E-0.18477
G1 X112.052 Y106.103 E-0.41797
G1 X113.380 Y102.898 E-0.41809
G1 X113.405 Y102.705 E-0.02343
G1 X102.705 Y113.405 E-1.82329
G1 X99.613 Y113.812 E-0.37577
G1 X113.812 Y99.613 E-2.41951
G1 X113.832 Y99.458 E-0.01880
G1 X113.536 Y97.204 E-0.27393
G1 X97.204 Y113.536 E-2.78288
G1 X96.019 Y113.380 E-0.14407
G1 X95.069 Y112.986 E-0.12390
G1 X112.986 Y95.069 E-3.05312
G1 X112.200 Y93.170 E-0.24761
G1 X93.170 Y112.200 E-3.24262
G1 X92.813 Y112.052 E-0.04658
G1 X91.580 Y111.105 E-0.18733
G1 X111.105 Y91.580 E-3.32714
G1 X109.939 Y90.061 E-0.23074
G1 X90.061 Y109.939 E-3.38732
G1 X88.895 Y108.420 E-0.23074
G1 X108.420 Y88.895 E-3.32714
G1 X107.187 Y87.948 E-0.18733
G1 X106.830 Y87.800 E-0.04658
