; generated by Slic3r 1.3.0 on 2020-10-06 at 14:56:59

; external perimeters extrusion width = 1.00mm (6.70mm^3/s)
; perimeters extrusion width = 1.00mm (13.39mm^3/s)
; infill extrusion width = 1.00mm (17.85mm^3/s)
; solid infill extrusion width = 1.00mm (8.93mm^3/s)
; top infill extrusion width = 1.00mm (6.70mm^3/s)

G28
M302 P1
G21 ; set units to millimeters
G90 ; use absolute coordinates
M83 ; use relative distances for extrusion
G92 E0
T1; Select extruder
; Filament gcode

G21 ; set units to millimeters
G90 ; use absolute coordinates
M83 ; use relative distances for extrusion
; ===== Paste Stabilization Layer (v2, auto-generated) =====
; Method: priming ramp + purge line + pressure-state shaping + retraction suppression
G90 ; absolute positioning (XY)
M83 ; relative extrusion (E)
G1 Z1.200 F600 ; set purge Z
G1 X10.000 Y10.000 F3000 ; purge start
; --- Pressure priming ramp (open-loop) ---
G1 E1.000 F120.0 ; prime step 1/8
G1 E1.000 F120.0 ; prime step 2/8
G1 E1.000 F120.0 ; prime step 3/8
G1 E1.000 F120.0 ; prime step 4/8
G1 E1.000 F120.0 ; prime step 5/8
G1 E1.000 F120.0 ; prime step 6/8
G1 E1.000 F120.0 ; prime step 7/8
G1 E1.000 F120.0 ; prime step 8/8
; --- Purge line ---
G1 E2.400 F180.0 ; pre-purge
G1 X80.000 Y10.000 E12.000 F600.0 ; purge line
; ===== End stabilization header =====
; [stabilizer] RETRACTION SUPPRESSED: G1 E-4.00000 F1800.00000
G4 S0.35 ; dwell instead of retract
G1 E0.600 F1800.0 ; micro-prime after dwell
G1 Z0.500 F3600.000
G1 X57.518 Y57.083 F3600.000
; [stabilizer] RETRACTION SUPPRESSED: G1 E-4.00000 F1800.00000
G4 S0.35 ; dwell instead of retract
G1 E0.600 F1800.0 ; micro-prime after dwell
G1 F1800
; [stabilizer] RETRACTION SUPPRESSED: G1 X59.913 Y55.368 E-0.01674
G4 S0.35 ; dwell instead of retract
G1 X59.913 Y55.368 E0.600 F120.0 ; micro-prime after dwell (geometry preserved)
; [stabilizer] RETRACTION SUPPRESSED: G1 X62.679 Y54.357 E-0.01674
G4 S0.35 ; dwell instead of retract
G1 X62.679 Y54.357 E0.600 F120.0 ; micro-prime after dwell (geometry preserved)
; [stabilizer] RETRACTION SUPPRESSED: G1 X65.000 Y54.107 E-0.01327
G4 S0.35 ; dwell instead of retract
G1 X65.000 Y54.107 E0.600 F120.0 ; micro-prime after dwell (geometry preserved)
; [stabilizer] RETRACTION SUPPRESSED: G1 X135.000 Y54.107 E-0.39782
G4 S0.35 ; dwell instead of retract
G1 X135.000 Y54.107 E0.600 F120.0 ; micro-prime after dwell (geometry preserved)
; [stabilizer] RETRACTION SUPPRESSED: G1 X137.918 Y54.505 E-0.01674
G4 S0.35 ; dwell instead of retract
G1 X137.918 Y54.505 E0.600 F120.0 ; micro-prime after dwell (geometry preserved)
; [stabilizer] RETRACTION SUPPRESSED: G1 X140.623 Y55.671 E-0.01674
G4 S0.35 ; dwell instead of retract
G1 X140.623 Y55.671 E0.600 F120.0 ; micro-prime after dwell (geometry preserved)
; [stabilizer] RETRACTION SUPPRESSED: G1 X142.917 Y57.518 E-0.01674
G4 S0.35 ; dwell instead of retract
G1 X142.917 Y57.518 E0.600 F120.0 ; micro-prime after dwell (geometry preserved)
; [stabilizer] RETRACTION SUPPRESSED: G1 X144.632 Y59.913 E-0.01674
G4 S0.35 ; dwell instead of retract
G1 X144.632 Y59.913 E0.600 F120.0 ; micro-prime after dwell (geometry preserved)
; [stabilizer] RETRACTION SUPPRESSED: G1 X145.643 Y62.679 E-0.01674
G4 S0.35 ; dwell instead of retract
G1 X145.643 Y62.679 E0.600 F120.0 ; micro-prime after dwell (geometry preserved)
; [stabilizer] RETRACTION SUPPRESSED: G1 X145.893 Y65.000 E-0.01327
G4 S0.35 ; dwell instead of retract
G1 X145.893 Y65.000 E0.600 F120.0 ; micro-prime after dwell (geometry preserved)
; [stabilizer] RETRACTION SUPPRESSED: G1 X145.893 Y135.000 E-0.39782
G4 S0.35 ; dwell instead of retract
G1 X145.893 Y135.000 E0.600 F120.0 ; micro-prime after dwell (geometry preserved)
; [stabilizer] RETRACTION SUPPRESSED: G1 X145.495 Y137.918 E-0.01674
G4 S0.35 ; dwell instead of retract
G1 X145.495 Y137.918 E0.600 F120.0 ; micro-prime after dwell (geometry preserved)
; [stabilizer] RETRACTION SUPPRESSED: G1 X144.329 Y140.623 E-0.01674
G4 S0.35 ; dwell instead of retract
G1 X144.329 Y140.623 E0.600 F120.0 ; micro-prime after dwell (geometry preserved)
; [stabilizer] RETRACTION SUPPRESSED: G1 X142.482 Y142.917 E-0.01674
G4 S0.35 ; dwell instead of retract
G1 X142.482 Y142.917 E0.600 F120.0 ; micro-prime after dwell (geometry preserved)
; [stabilizer] RETRACTION SUPPRESSED: G1 X140.087 Y144.632 E-0.01674
G4 S0.35 ; dwell instead of retract
G1 X140.087 Y144.632 E0.600 F120.0 ; micro-prime after dwell (geometry preserved)
; [stabilizer] RETRACTION SUPPRESSED: G1 X137.321 Y145.643 E-0.01674
G4 S0.35 ; dwell instead of retract
G1 X137.321 Y145.643 E0.600 F120.0 ; micro-prime after dwell (geometry preserved)
; [stabilizer] RETRACTION SUPPRESSED: G1 X135.000 Y145.893 E-0.01327
G4 S0.35 ; dwell instead of retract
G1 X135.000 Y145.893 E0.600 F120.0 ; micro-prime after dwell (geometry preserved)
; [stabilizer] RETRACTION SUPPRESSED: G1 X65.000 Y145.893 E-0.39782
G4 S0.35 ; dwell instead of retract
G1 X65.000 Y145.893 E0.600 F120.0 ; micro-prime after dwell (geometry preserved)
; [stabilizer] RETRACTION SUPPRESSED: G1 X62.082 Y145.495 E-0.01674
G4 S0.35 ; dwell instead of retract
G1 X62.082 Y145.495 E0.600 F120.0 ; micro-prime after dwell (geometry preserved)
; [stabilizer] RETRACTION SUPPRESSED: G1 X59.377 Y144.329 E-0.01674
G4 S0.35 ; dwell instead of retract
G1 X59.377 Y144.329 E0.600 F120.0 ; micro-prime after dwell (geometry preserved)
; [stabilizer] RETRACTION SUPPRESSED: G1 X57.083 Y142.482 E-0.01674
G4 S0.35 ; dwell instead of retract
G1 X57.083 Y142.482 E0.600 F120.0 ; micro-prime after dwell (geometry preserved)
; [stabilizer] RETRACTION SUPPRESSED: G1 X55.368 Y140.087 E-0.01674
G4 S0.35 ; dwell instead of retract
G1 X55.368 Y140.087 E0.600 F120.0 ; micro-prime after dwell (geometry preserved)
; [stabilizer] RETRACTION SUPPRESSED: G1 X54.357 Y137.321 E-0.01674
G4 S0.35 ; dwell instead of retract
G1 X54.357 Y137.321 E0.600 F120.0 ; micro-prime after dwell (geometry preserved)
; [stabilizer] RETRACTION SUPPRESSED: G1 X54.107 Y135.000 E-0.01327
G4 S0.35 ; dwell instead of retract
G1 X54.107 Y135.000 E0.600 F120.0 ; micro-prime after dwell (geometry preserved)
; [stabilizer] RETRACTION SUPPRESSED: G1 X54.107 Y65.000 E-0.39782
G4 S0.35 ; dwell instead of retract
G1 X54.107 Y65.000 E0.600 F120.0 ; micro-prime after dwell (geometry preserved)
; [stabilizer] RETRACTION SUPPRESSED: G1 X54.505 Y62.082 E-0.01674
G4 S0.35 ; dwell instead of retract
G1 X54.505 Y62.082 E0.600 F120.0 ; micro-prime after dwell (geometry preserved)
; [stabilizer] RETRACTION SUPPRESSED: G1 X55.671 Y59.377 E-0.01674
G4 S0.35 ; dwell instead of retract
G1 X55.671 Y59.377 E0.600 F120.0 ; micro-prime after dwell (geometry preserved)
; [stabilizer] RETRACTION SUPPRESSED: G1 X57.471 Y57.142 E-0.01631
G4 S0.35 ; dwell instead of retract
G1 X57.471 Y57.142 E0.600 F120.0 ; micro-prime after dwell (geometry preserved)
; [stabilizer] RETRACTION SUPPRESSED: G1 E-4.00000 F1800.00000
G4 S0.35 ; dwell instead of retract
G1 E0.600 F1800.0 ; micro-prime after dwell
G1 X122.557 Y122.122 F3600.000
; [stabilizer] RETRACTION SUPPRESSED: G1 E-4.00000 F1800.00000
G4 S0.35 ; dwell instead of retract
G1 E0.600 F1800.0 ; micro-prime after dwell
G1 F1800
; [stabilizer] RETRACTION SUPPRESSED: G1 X121.178 Y123.502 E-0.01109
G4 S0.35 ; dwell instead of retract
G1 X121.178 Y123.502 E0.600 F120.0 ; micro-prime after dwell (geometry preserved)
; [stabilizer] RETRACTION SUPPRESSED: G1 X118.248 Y124.994 E-0.01868
G4 S0.35 ; dwell instead of retract
G1 X118.248 Y124.994 E0.600 F120.0 ; micro-prime after dwell (geometry preserved)
; [stabilizer] RETRACTION SUPPRESSED: G1 X115.001 Y125.509 E-0.01869
G4 S0.35 ; dwell instead of retract
G1 X115.001 Y125.509 E0.600 F120.0 ; micro-prime after dwell (geometry preserved)
; [stabilizer] RETRACTION SUPPRESSED: G1 X111.754 Y124.994 E-0.01868
G4 S0.35 ; dwell instead of retract
G1 X111.754 Y124.994 E0.600 F120.0 ; micro-prime after dwell (geometry preserved)
; [stabilizer] RETRACTION SUPPRESSED: G1 X108.825 Y123.502 E-0.01868
G4 S0.35 ; dwell instead of retract
G1 X108.825 Y123.502 E0.600 F120.0 ; micro-prime after dwell (geometry preserved)
; [stabilizer] RETRACTION SUPPRESSED: G1 X106.500 Y121.178 E-0.01868
G4 S0.35 ; dwell instead of retract
G1 X106.500 Y121.178 E0.600 F120.0 ; micro-prime after dwell (geometry preserved)
; [stabilizer] RETRACTION SUPPRESSED: G1 X105.009 Y118.248 E-0.01868
G4 S0.35 ; dwell instead of retract
G1 X105.009 Y118.248 E0.600 F120.0 ; micro-prime after dwell (geometry preserved)
; [stabilizer] RETRACTION SUPPRESSED: G1 X104.494 Y115.002 E-0.01868
G4 S0.35 ; dwell instead of retract
G1 X104.494 Y115.002 E0.600 F120.0 ; micro-prime after dwell (geometry preserved)
; [stabilizer] RETRACTION SUPPRESSED: G1 X105.009 Y111.755 E-0.01869
G4 S0.35 ; dwell instead of retract
G1 X105.009 Y111.755 E0.600 F120.0 ; micro-prime after dwell (geometry preserved)
; [stabilizer] RETRACTION SUPPRESSED: G1 X106.500 Y108.825 E-0.01868
G4 S0.35 ; dwell instead of retract
G1 X106.500 Y108.825 E0.600 F120.0 ; micro-prime after dwell (geometry preserved)
; [stabilizer] RETRACTION SUPPRESSED: G1 X108.825 Y106.501 E-0.01868
G4 S0.35 ; dwell instead of retract
G1 X108.825 Y106.501 E0.600 F120.0 ; micro-prime after dwell (geometry preserved)
; [stabilizer] RETRACTION SUPPRESSED: G1 X111.755 Y105.009 E-0.01868
G4 S0.35 ; dwell instead of retract
G1 X111.755 Y105.009 E0.600 F120.0 ; micro-prime after dwell (geometry preserved)
; [stabilizer] RETRACTION SUPPRESSED: G1 X115.001 Y104.495 E-0.01868
G4 S0.35 ; dwell instead of retract
G1 X115.001 Y104.495 E0.600 F120.0 ; micro-prime after dwell (geometry preserved)
; [stabilizer] RETRACTION SUPPRESSED: G1 X118.248 Y105.009 E-0.01869
G4 S0.35 ; dwell instead of retract
G1 X118.248 Y105.009 E0.600 F120.0 ; micro-prime after dwell (geometry preserved)
; [stabilizer] RETRACTION SUPPRESSED: G1 X121.178 Y106.501 E-0.01868
G4 S0.35 ; dwell instead of retract
G1 X121.178 Y106.501 E0.600 F120.0 ; micro-prime after dwell (geometry preserved)
; [stabilizer] RETRACTION SUPPRESSED: G1 X123.502 Y108.825 E-0.01868
G4 S0.35 ; dwell instead of retract
G1 X123.502 Y108.825 E0.600 F120.0 ; micro-prime after dwell (geometry preserved)
; [stabilizer] RETRACTION SUPPRESSED: G1 X124.994 Y111.755 E-0.01868
G4 S0.35 ; dwell instead of retract
G1 X124.994 Y111.755 E0.600 F120.0 ; micro-prime after dwell (geometry preserved)
; [stabilizer] RETRACTION SUPPRESSED: G1 X125.508 Y115.002 E-0.01869
G4 S0.35 ; dwell instead of retract
G1 X125.508 Y115.002 E0.600 F120.0 ; micro-prime after dwell (geometry preserved)
; [stabilizer] RETRACTION SUPPRESSED: G1 X124.994 Y118.248 E-0.01868
G4 S0.35 ; dwell instead of retract
G1 X124.994 Y118.248 E0.600 F120.0 ; micro-prime after dwell (geometry preserved)
; [stabilizer] RETRACTION SUPPRESSED: G1 X123.502 Y121.178 E-0.01868
G4 S0.35 ; dwell instead of retract
G1 X123.502 Y121.178 E0.600 F120.0 ; micro-prime after dwell (geometry preserved)
; [stabilizer] RETRACTION SUPPRESSED: G1 X122.610 Y122.069 E-0.00716
G4 S0.35 ; dwell instead of retract
G1 X122.610 Y122.069 E0.600 F120.0 ; micro-prime after dwell (geometry preserved)
; [stabilizer] RETRACTION SUPPRESSED: G1 E-4.00000 F1800.00000
G4 S0.35 ; dwell instead of retract
G1 E0.600 F1800.0 ; micro-prime after dwell
G1 X114.708 Y95.165 F3600.000
; [stabilizer] RETRACTION SUPPRESSED: G1 E-4.00000 F1800.00000
G4 S0.35 ; dwell instead of retract
G1 E0.600 F1800.0 ; micro-prime after dwell
G1 F1800
; [stabilizer] RETRACTION SUPPRESSED: G1 X111.523 Y87.819 E-0.04550
G4 S0.35 ; dwell instead of retract
G1 X111.523 Y87.819 E0.600 F120.0 ; micro-prime after dwell (geometry preserved)
; [stabilizer] RETRACTION SUPPRESSED: G1 X103.944 Y86.392 E-0.04383
G4 S0.35 ; dwell instead of retract
G1 X103.944 Y86.392 E0.600 F120.0 ; micro-prime after dwell (geometry preserved)
; [stabilizer] RETRACTION SUPPRESSED: G1 X109.642 Y81.008 E-0.04455
G4 S0.35 ; dwell instead of retract
G1 X109.642 Y81.008 E0.600 F120.0 ; micro-prime after dwell (geometry preserved)
; [stabilizer] RETRACTION SUPPRESSED: G1 X108.602 Y73.043 E-0.04565
G4 S0.35 ; dwell instead of retract
G1 X108.602 Y73.043 E0.600 F120.0 ; micro-prime after dwell (geometry preserved)
; [stabilizer] RETRACTION SUPPRESSED: G1 X115.318 Y77.032 E-0.04439
G4 S0.35 ; dwell instead of retract
G1 X115.318 Y77.032 E0.600 F120.0 ; micro-prime after dwell (geometry preserved)
; [stabilizer] RETRACTION SUPPRESSED: G1 X122.284 Y73.542 E-0.04428
G4 S0.35 ; dwell instead of retract
G1 X122.284 Y73.542 E0.600 F120.0 ; micro-prime after dwell (geometry preserved)
; [stabilizer] RETRACTION SUPPRESSED: G1 X120.712 Y81.408 E-0.04559
G4 S0.35 ; dwell instead of retract
G1 X120.712 Y81.408 E0.600 F120.0 ; micro-prime after dwell (geometry preserved)
; [stabilizer] RETRACTION SUPPRESSED: G1 X126.036 Y87.193 E-0.04468
G4 S0.35 ; dwell instead of retract
G1 X126.036 Y87.193 E0.600 F120.0 ; micro-prime after dwell (geometry preserved)
; [stabilizer] RETRACTION SUPPRESSED: G1 X118.379 Y88.068 E-0.04380
G4 S0.35 ; dwell instead of retract
G1 X118.379 Y88.068 E0.600 F120.0 ; micro-prime after dwell (geometry preserved)
; [stabilizer] RETRACTION SUPPRESSED: G1 X114.743 Y95.099 E-0.04498
G4 S0.35 ; dwell instead of retract
G1 X114.743 Y95.099 E0.600 F120.0 ; micro-prime after dwell (geometry preserved)
; [stabilizer] RETRACTION SUPPRESSED: G1 E-4.00000 F1800.00000
G4 S0.35 ; dwell instead of retract
G1 E0.600 F1800.0 ; micro-prime after dwell
G1 X84.998 Y75.341 F3600.000
; [stabilizer] RETRACTION SUPPRESSED: G1 E-4.00000 F1800.00000
G4 S0.35 ; dwell instead of retract
G1 E0.600 F1800.0 ; micro-prime after dwell
G1 F1800
; [stabilizer] RETRACTION SUPPRESSED: G1 X89.268 Y78.982 E-0.03189
G4 S0.35 ; dwell instead of retract
G1 X89.268 Y78.982 E0.600 F120.0 ; micro-prime after dwell (geometry preserved)
; [stabilizer] RETRACTION SUPPRESSED: G1 X92.448 Y82.177 E-0.02562
G4 S0.35 ; dwell instead of retract
G1 X92.448 Y82.177 E0.600 F120.0 ; micro-prime after dwell (geometry preserved)
; [stabilizer] RETRACTION SUPPRESSED: G1 X94.582 Y85.238 E-0.02120
G4 S0.35 ; dwell instead of retract
G1 X94.582 Y85.238 E0.600 F120.0 ; micro-prime after dwell (geometry preserved)
; [stabilizer] RETRACTION SUPPRESSED: G1 X95.183 Y86.780 E-0.00941
G4 S0.35 ; dwell instead of retract
G1 X95.183 Y86.780 E0.600 F120.0 ; micro-prime after dwell (geometry preserved)
; [stabilizer] RETRACTION SUPPRESSED: G1 X95.386 Y88.250 E-0.00843
G4 S0.35 ; dwell instead of retract
G1 X95.386 Y88.250 E0.600 F120.0 ; micro-prime after dwell (geometry preserved)
; [stabilizer] RETRACTION SUPPRESSED: G1 X95.501 Y89.513 E-0.00721
G4 S0.35 ; dwell instead of retract
G1 X95.501 Y89.513 E0.600 F120.0 ; micro-prime after dwell (geometry preserved)
; [stabilizer] RETRACTION SUPPRESSED: G1 X95.201 Y92.278 E-0.01580
G4 S0.35 ; dwell instead of retract
G1 X95.201 Y92.278 E0.600 F120.0 ; micro-prime after dwell (geometry preserved)
; [stabilizer] RETRACTION SUPPRESSED: G1 X94.563 Y93.828 E-0.00953
G4 S0.35 ; dwell instead of retract
G1 X94.563 Y93.828 E0.600 F120.0 ; micro-prime after dwell (geometry preserved)
; [stabilizer] RETRACTION SUPPRESSED: G1 X93.424 Y95.191 E-0.01010
G4 S0.35 ; dwell instead of retract
G1 X93.424 Y95.191 E0.600 F120.0 ; micro-prime after dwell (geometry preserved)
; [stabilizer] RETRACTION SUPPRESSED: G1 X91.669 Y96.151 E-0.01137
G4 S0.35 ; dwell instead of retract
G1 X91.669 Y96.151 E0.600 F120.0 ; micro-prime after dwell (geometry preserved)
; [stabilizer] RETRACTION SUPPRESSED: G1 X89.215 Y96.508 E-0.01409
G4 S0.35 ; dwell instead of retract
G1 X89.215 Y96.508 E0.600 F120.0 ; micro-prime after dwell (geometry preserved)
; [stabilizer] RETRACTION SUPPRESSED: G1 X87.357 Y96.072 E-0.01084
G4 S0.35 ; dwell instead of retract
G1 X87.357 Y96.072 E0.600 F120.0 ; micro-prime after dwell (geometry preserved)
; [stabilizer] RETRACTION SUPPRESSED: G1 X85.882 Y95.069 E-0.01014
G4 S0.35 ; dwell instead of retract
G1 X85.882 Y95.069 E0.600 F120.0 ; micro-prime after dwell (geometry preserved)
